X:50
T:Mouth of the Tobique
S:Bernie Waugh
R:Reel
M:4/4
L:1/8
K:G
|:(3DEF|\
"G"GFGA Bded|BdBG DGBG|"Am"AGFE "D"DFAc|"G"BdBG "D"D2 (3DEF|
"G"GFGA Bded|BdBG DGBG|"Am"AGFE "D"DFAc|"G"BG2GG2:|
|:ef|\
"G"gfga gfeg|"D"fdAd fagf|"Am"ecAF "D"DFAc|"Em"BGBc "D"d2ef|
"G"gfga gfeg|"D"fdAd fagf|"Am"ecAF "D"DFAc|"G"BG2GG2:|

